assets/icons/icon_turbo_v2.svg

<svg width="30" height="30" viewBox="0 0 30 30" fill="none" xmlns="http://www.w3.org/2000/svg">
<g clip-path="url(#clip0_2048_894)">
<path d="M5.99994 16.1087C5.98012 18.5285 6.91649 20.8575 8.60367 22.5847C10.2909 24.312 12.5911 25.2965 14.9999 25.3224C20.0458 25.3224 23.9999 21.453 23.9999 16.5147C23.9999 11.3011 19.8786 6.89026 14.9999 6.89026C13.3586 6.88962 11.7496 7.34867 10.3536 8.21584L10.8182 5.73737C10.8562 5.58082 10.8312 5.41553 10.7485 5.27743C10.6658 5.13933 10.5323 5.03959 10.3768 4.9999C10.3013 4.98734 10.224 4.99014 10.1496 5.00814C10.0752 5.02614 10.0052 5.05897 9.94366 5.10468C9.88212 5.15039 9.83036 5.20805 9.79142 5.27424C9.75249 5.34042 9.72719 5.41379 9.71702 5.48999L8.9736 9.26604C8.03323 10.1375 7.28334 11.1957 6.77145 12.3736C6.25956 13.5515 5.99684 14.8234 5.99994 16.1087ZM22.8429 16.1087C22.8565 18.2123 22.038 20.2353 20.5673 21.7329C19.0965 23.2305 17.094 24.08 14.9999 24.0948C13.4123 24.0668 11.8692 23.5627 10.5689 22.6472C9.26865 21.7317 8.27047 20.4466 7.7026 18.957C7.13473 17.4674 7.0231 15.8412 7.38205 14.2874C7.741 12.7336 8.55413 11.323 9.71702 10.2369L13.2575 10.7036C13.3335 10.7121 13.4104 10.7053 13.4838 10.6838C13.5572 10.6623 13.6256 10.6265 13.6852 10.5783C13.7448 10.5302 13.7943 10.4707 13.831 10.4033C13.8676 10.3359 13.8906 10.2619 13.8987 10.1855C13.9227 10.0277 13.8834 9.86677 13.7892 9.7381C13.6951 9.60943 13.554 9.52357 13.3969 9.49941L11.1109 9.20069C12.2942 8.49778 13.6438 8.12703 15.0185 8.12715C17.1085 8.14688 19.1056 8.99798 20.5722 10.494C22.0388 11.99 22.8553 14.009 22.8429 16.1087Z" fill="white"/>
<path d="M10.1528 15.183H9.20986V14.7359H11.6242V15.183H10.6812V17.5811H10.1528V15.183ZM14.0217 15.4106V17.5811H13.538V17.3047C13.4567 17.4022 13.3551 17.4781 13.2332 17.5323C13.1112 17.5838 12.9798 17.6095 12.8389 17.6095C12.549 17.6095 12.32 17.5296 12.152 17.3697C11.9867 17.2071 11.9041 16.9673 11.9041 16.6503V15.4106H12.4121V16.5812C12.4121 16.7763 12.4555 16.9226 12.5422 17.0202C12.6316 17.115 12.7576 17.1624 12.9202 17.1624C13.1018 17.1624 13.2454 17.1069 13.351 16.9958C13.4594 16.882 13.5136 16.7194 13.5136 16.508V15.4106H14.0217ZM15.1706 15.7276C15.3169 15.5 15.5743 15.3862 15.9428 15.3862V15.8699C15.8995 15.8618 15.8602 15.8577 15.825 15.8577C15.6272 15.8577 15.4727 15.916 15.3616 16.0325C15.2505 16.1463 15.195 16.3116 15.195 16.5283V17.5811H14.6869V15.4106H15.1706V15.7276ZM17.5769 15.3862C17.7883 15.3862 17.9766 15.4323 18.1419 15.5244C18.3099 15.6165 18.4413 15.7466 18.5361 15.9146C18.631 16.0826 18.6784 16.2764 18.6784 16.4958C18.6784 16.7153 18.631 16.9104 18.5361 17.0811C18.4413 17.2491 18.3099 17.3792 18.1419 17.4713C17.9766 17.5634 17.7883 17.6095 17.5769 17.6095C17.4279 17.6095 17.2911 17.5838 17.1664 17.5323C17.0445 17.4808 16.9415 17.4036 16.8575 17.3006V17.5811H16.3738V14.5652H16.8819V15.6748C16.9686 15.58 17.0702 15.5082 17.1867 15.4594C17.306 15.4106 17.436 15.3862 17.5769 15.3862ZM17.52 17.1746C17.707 17.1746 17.8601 17.1123 17.9793 16.9876C18.1012 16.863 18.1622 16.6991 18.1622 16.4958C18.1622 16.2926 18.1012 16.1287 17.9793 16.004C17.8601 15.8794 17.707 15.8171 17.52 15.8171C17.3981 15.8171 17.2883 15.8455 17.1908 15.9024C17.0932 15.9566 17.016 16.0352 16.9591 16.1382C16.9022 16.2411 16.8738 16.3603 16.8738 16.4958C16.8738 16.6313 16.9022 16.7505 16.9591 16.8535C17.016 16.9565 17.0932 17.0364 17.1908 17.0933C17.2883 17.1475 17.3981 17.1746 17.52 17.1746ZM20.1357 17.6095C19.9162 17.6095 19.7184 17.5621 19.5423 17.4672C19.3662 17.3724 19.228 17.241 19.1277 17.073C19.0302 16.9023 18.9814 16.7099 18.9814 16.4958C18.9814 16.2818 19.0302 16.0907 19.1277 15.9227C19.228 15.7547 19.3662 15.6233 19.5423 15.5285C19.7184 15.4336 19.9162 15.3862 20.1357 15.3862C20.3579 15.3862 20.5571 15.4336 20.7332 15.5285C20.9093 15.6233 21.0462 15.7547 21.1437 15.9227C21.244 16.0907 21.2941 16.2818 21.2941 16.4958C21.2941 16.7099 21.244 16.9023 21.1437 17.073C21.0462 17.241 20.9093 17.3724 20.7332 17.4672C20.5571 17.5621 20.3579 17.6095 20.1357 17.6095ZM20.1357 17.1746C20.3227 17.1746 20.4771 17.1123 20.5991 16.9876C20.721 16.863 20.782 16.6991 20.782 16.4958C20.782 16.2926 20.721 16.1287 20.5991 16.004C20.4771 15.8794 20.3227 15.8171 20.1357 15.8171C19.9487 15.8171 19.7943 15.8794 19.6724 16.004C19.5531 16.1287 19.4935 16.2926 19.4935 16.4958C19.4935 16.6991 19.5531 16.863 19.6724 16.9876C19.7943 17.1123 19.9487 17.1746 20.1357 17.1746Z" fill="white"/>
</g>
<defs>
<clipPath id="clip0_2048_894">
<rect width="17.9999" height="20.3225" fill="white" transform="translate(6.00012 5)"/>
</clipPath>
</defs>
</svg>

<svg xmlns="http://www.w3.org/2000/svg" width="30" height="30" fill="none" viewBox="0 0 30 30"><g fill="#fff" clip-path="url(#a)"><path d="M6 16.109a9.16 9.16 0 0 0 2.604 6.476A9.08 9.08 0 0 0 15 25.322c5.046 0 9-3.869 9-8.807 0-5.214-4.121-9.625-9-9.625-1.641 0-3.25.459-4.646 1.326l.464-2.479A.614.614 0 0 0 10.377 5a.57.57 0 0 0-.66.49l-.743 3.776a9.3 9.3 0 0 0-2.203 3.108A9.3 9.3 0 0 0 6 16.109m16.843 0a7.95 7.95 0 0 1-2.276 5.624A7.88 7.88 0 0 1 15 24.095a7.94 7.94 0 0 1-4.431-1.448 8 8 0 0 1-2.866-3.69 8.04 8.04 0 0 1-.321-4.67 8 8 0 0 1 2.335-4.05l3.54.467a.58.58 0 0 0 .574-.3.6.6 0 0 0 .068-.219.604.604 0 0 0-.502-.686l-2.286-.298a7.65 7.65 0 0 1 3.907-1.074c2.09.02 4.088.871 5.554 2.367a7.95 7.95 0 0 1 2.27 5.615"/><path d="M10.153 15.183H9.21v-.447h2.414v.447h-.943v2.398h-.528zm3.869.228v2.17h-.484v-.276a.8.8 0 0 1-.305.227 1 1 0 0 1-.394.078q-.435 0-.687-.24-.248-.244-.248-.72v-1.24h.508v1.171q0 .293.13.44.135.141.378.141a.57.57 0 0 0 .431-.166q.162-.171.163-.488v-1.097zm1.149.317q.219-.342.772-.342v.484a1 1 0 0 0-.118-.012q-.297 0-.463.174-.167.172-.167.496v1.053h-.508v-2.17h.484zm2.406-.342q.317 0 .565.138.252.14.394.39.142.253.142.582 0 .33-.142.585a1 1 0 0 1-.394.39 1.14 1.14 0 0 1-.565.139q-.224 0-.41-.078a.8.8 0 0 1-.31-.231v.28h-.483v-3.016h.508v1.11a.9.9 0 0 1 .305-.216q.178-.073.39-.073m-.057 1.789q.28 0 .46-.187a.67.67 0 0 0 .182-.492.67.67 0 0 0-.183-.492.6.6 0 0 0-.459-.187.64.64 0 0 0-.33.085.6.6 0 0 0-.23.236.7.7 0 0 0-.086.358q0 .203.085.358a.6.6 0 0 0 .232.24.67.67 0 0 0 .329.08m2.616.434a1.2 1.2 0 0 1-.594-.142 1.06 1.06 0 0 1-.414-.394 1.14 1.14 0 0 1-.147-.577q0-.321.147-.573.15-.252.414-.395a1.2 1.2 0 0 1 .594-.142q.333 0 .597.143.264.141.41.394.151.252.151.573t-.15.577q-.147.252-.41.394a1.24 1.24 0 0 1-.598.143m0-.434a.62.62 0 0 0 .463-.187.67.67 0 0 0 .183-.492.67.67 0 0 0-.183-.492.62.62 0 0 0-.463-.187.62.62 0 0 0-.464.187.68.68 0 0 0-.178.492q0 .305.178.492a.62.62 0 0 0 .464.187"/></g><defs><clipPath id="a"><path fill="#fff" d="M6 5h18v20.323H6z"/></clipPath></defs></svg>
